components/ui-node-icon/src/chart/chart.small.svg

<svg width="16" height="16" viewBox="0 0 16 16" fill="none" xmlns="http://www.w3.org/2000/svg">
  <path fill-rule="evenodd" clip-rule="evenodd" d="M7 3H9V4V5V12H7V8V7V3ZM6 7V3C6 2.44771 6.44772 2 7 2H9C9.55228 2 10 2.44772 10 3V4H12C12.5523 4 13 4.44772 13 5V12C13 12.5523 12.5523 13 12 13H10H9H7H6H4C3.44772 13 3 12.5523 3 12V8C3 7.44772 3.44772 7 4 7H6ZM6 8H4V12H6V8ZM10 5V12H12V5H10Z" fill="currentColor"/>
</svg>

<svg xmlns="http://www.w3.org/2000/svg" width="16" height="16" fill="none" viewBox="0 0 16 16">
  <path fill="currentColor" fill-rule="evenodd" d="M7 3h2v9H7V3ZM6 7V3a1 1 0 0 1 1-1h2a1 1 0 0 1 1 1v1h2a1 1 0 0 1 1 1v7a1 1 0 0 1-1 1H4a1 1 0 0 1-1-1V8a1 1 0 0 1 1-1h2Zm0 1H4v4h2V8Zm4-3v7h2V5h-2Z" clip-rule="evenodd"/>
</svg>
